static/chroma.svg

<svg fill="none" height="98" viewBox="0 0 98 98" width="98" xmlns="http://www.w3.org/2000/svg"><g fill="#11b2df"><path d="m49.3688 32.4231-16.2067 16.2068 16.2067 16.2067 16.2068-16.2067z"/><path d="m70.4395 29.1797v38.9l19.45-19.45z"/><path d="m70.4902 0v27.51h27.51z"/><path d="m70.4902 98.0002 27.51-27.51h-27.51z"/><path d="m27.51 98.0002v-27.51h-27.51z"/><path d="m27.51 0-27.51 27.51h27.51z"/><path d="m29.9199 27.5604h38.9l-19.45-19.45005z"/><path d="m28.2998 68.0797v-38.9l-19.45996 19.45z"/><path d="m49.3699 89.1602 19.45-19.46h-38.9z"/></g></svg>

<svg width="98" height="98" viewBox="0 0 98 98" fill="none" xmlns="http://www.w3.org/2000/svg">
<path d="M49.3688 32.4231L33.1621 48.6299L49.3688 64.8366L65.5756 48.6299L49.3688 32.4231Z" fill="#11B2DF"/>
<path d="M70.4395 29.1797V68.0797L89.8895 48.6297L70.4395 29.1797Z" fill="#11B2DF"/>
<path d="M70.4902 0V27.51H98.0002L70.4902 0Z" fill="#11B2DF"/>
<path d="M70.4902 98.0002L98.0002 70.4902H70.4902V98.0002Z" fill="#11B2DF"/>
<path d="M27.51 98.0002V70.4902H0L27.51 98.0002Z" fill="#11B2DF"/>
<path d="M27.51 0L0 27.51H27.51V0Z" fill="#11B2DF"/>
<path d="M29.9199 27.5604H68.8199L49.3699 8.11035L29.9199 27.5604Z" fill="#11B2DF"/>
<path d="M28.2998 68.0797V29.1797L8.83984 48.6297L28.2998 68.0797Z" fill="#11B2DF"/>
<path d="M49.3699 89.1602L68.8199 69.7002H29.9199L49.3699 89.1602Z" fill="#11B2DF"/>
</svg>
